X:1
T:Title
%%score { ( 1 3 ) | 2 }
L:1/8
M:4/4
K:G
V:1 treble nm="Grand Piano"
V:3 treble 
V:2 bass 
V:1
 z4 z2[Q:1/4=100] [B,D]2 | [B,B]3 [B,D] [CE]2 [Ec]2 | [DB]4 [B,DG]2 [D=FG]2 | %3
 [DF]3 [EG] [Ec]2 [CE]2 |[M:3/4] [B,D]6 |[M:1/4] [B,D]2 |[M:4/4] [B,B]3 [B,D] [CE]2 [Ec]2 | %7
 [DB]4 [B,DG]2 [G,DG]2 | [^CA]3 [CE] [DF]2 [EG]2 |[M:3/4] A6 |[M:1/4] DD |[M:4/4] d2 d4 (3BAG | %12
 F2 F4 DD | [Fc]2 [Fc]2- [Fc][Fc] (3[FA][EG][FA] |[M:3/4] B6 |[M:1/4] BB |[M:4/4] d2 c2 B2 AA | %17
 G2 [DF]2 [CE]2 [Ee]2 | [Gd]2 [DGB]2 [CFA]3 [B,G] |[M:3/4] [B,G]6 |] %20
V:2
 z4 z2 [G,,G,]2 | [G,,D,]3 [G,,G,] [C,G,]2 [C,G,]2 | [G,,G,]4 G,,2 G,,2 | %3
 [C,C]3 [C,C] [C,G,]2 [C,G,]2 |[M:3/4] [G,,G,]6 |[M:1/4] [G,,G,]2 | %6
[M:4/4] [G,,D,]3 [G,,G,] [C,G,]2 [C,G,]2 | [G,,G,]4 G,,2 B,,2 | %8
 [A,,E,]3 [A,,A,] [A,,A,]2 [A,,A,]2 |[M:3/4] [D,A,]4 [D,C]2 |[M:1/4] D,D, | %11
[M:4/4] [G,B,D]2 [G,B,D]4 (3[G,D][G,CD][B,D] | [A,CD]2 [A,CD]4 [F,A,][F,A,] | %13
 [D,A,]2 [D,D]2- [D,D][D,D] (3[D,D][D,D][D,D] |[M:3/4][K:treble] [G,DG]6 |[M:1/4] [G,DG][G,DG] | %16
[M:4/4][K:bass] [G,B,D]2 [F,A,D]2 [G,B,D]2 [F,A,D][F,A,D] | [E,G,E]2 [B,,G,]2 [C,G,]2 [^C,A,]2 | %18
 [D,B,]2 D,2 D,3 G,, |[M:3/4] G,,6 |] %20
V:3
 x8 | x8 | x8 | x8 |[M:3/4] x6 |[M:1/4] x2 |[M:4/4] x8 | x8 | x8 |[M:3/4] F2 E2 D2 |[M:1/4] x2 | %11
[M:4/4] x8 | x8 | x8 |[M:3/4] x6 |[M:1/4] x2 |[M:4/4] x8 | x8 | x8 |[M:3/4] x6 |] %20

